X:1
T:Title
%%score ( 1 2 ) { 3 | 4 }
L:1/8
Q:1/4=110
M:4/4
K:F
V:1 treble nm="Grand Piano, Soprano"
V:2 treble 
V:3 bass nm="Choir Pad, Seychelles, 76.86 D"
V:4 bass 
V:1
 [Fc]2 [Fc]2 [FA]2 [FG]2 | z2 B4 z2 | [FA]2 [EG]2 [CF]2 [CE]2 | [CF]2 [CG]6 | %4
w: By~James~Ramsey~Murray,~1870 * * *||||
 [CG]2 [^CA]2- [CA][CA] [DF]2 | [DF]2 [DG]2- [DG][DG] [CE]2 | E2 [DF]2 [DG]2 [FA]2 | [F=B]2 [Ec]6 | %8
w: ||||
 [Ed]2 [Fc]2 [FA]2 [FG]2 | z2 B4 z2 | [FA]2 [EG]2 [CF]2 [CE]2 | [CF]2 [CG]6 | %12
w: ||||
 [CG]2 [^CA]2- [CA][CA] [DF]2 | [DF]2 [DB]2- [DB][DB] [EG]2 | [EG]2 [Fc]2- [Fc][FB] [FA]2 | %15
w: |||
 [EG]2 F6- | F2 z2 z4 |] %17
w: ||
V:2
 x8 | F2 F4- [FA]2 | x8 | x8 | x8 | x8 | x8 | x8 | x8 | F2 F4- [FA]2 | x8 | x8 | x8 | x8 | x8 | %15
 x8 | x8 |] %17
V:3
 A,2 A,2 C2 B,2 | A,2[K:treble] D4 C2 | C2 B,2 A,2[K:bass] G,2 | A,2 E,6 | E,2 E,2- E,A, A,2 | %5
 A,2 B,2- B,B, G,2 | B,2 A,2 A,2 G,2 | G,2 G,6 | B,2 A,2 C2 B,2 | A,2[K:treble] D4 C2 | %10
 C2 B,2 A,2[K:bass] G,2 | A,2 E,6 | E,2 E,2- E,A, A,2 | A,2 G,2- G,G, G,2 | C2 C2- CD C2 | %15
 B,2 A,6- | A,2 z2 z4 |] %17
V:4
 F,2 F,2 F,2 F,2 | F,2 F,6 | F,2 C,2 C,2 C,2 | C,2 C,6 | C,2 A,,2- A,,A,, D,2 | %5
 D,2 G,,2- G,,G,, C,2 | C,2 D,2 D,2 G,,2 | G,,2 C,6 | C,2 F,2 F,2 F,2 | F,2 F,6 | F,2 C,2 C,2 C,2 | %11
 C,2 C,6 | C,2 A,,2- A,,A,, D,2 | D,2 G,,2- G,,G,, C,2 | B,,2 A,,2- A,,B,, C,2 | C,2 F,6- | %16
 F,2 z2 z4 |] %17

